!!!COM: matt-nathanson
!!!OTL: come-on-get-higher
!!!RNB: hooktheoryid: _QLgndABo-V
**kern	**text
*clefG2	*
*k[f#c#g#]	*
*M4/4	*
=1	=1
16ee	D
16ee	.
8ee	.
8cc#	.
8a	.
16ee	.
16ee	.
8ee	A
8cc#	.
16r	.
[16ee	.
=2	=2
16ee]	D
8ee	.
16ee	.
8cc#	.
16a	.
16a	.
16ee	.
16ee	.
8ee	A
8cc#	.
16a	.
16a	.
=3	=3
8dd	D
16cc#	.
8.b	.
4b	.
8r	A
8a	.
[8dd	.
=4	=4
8dd]	F#m
8ee	.
8cc#	.
16cc#	.
[8.bL	.
16b]J	E
16b]	.
8.r	.
16a	.
=5	=5
16ee	D
16ee	.
8ee	.
8cc#	.
8a	.
16ee	.
16ee	.
8ee	A
8cc#	.
16r	.
[16ee	.
=6	=6
16ee]	D
8ee	.
16ee	.
8cc#	.
16a	.
16a	.
16ee	.
16ee	.
8ee	A
8cc#	.
16a	.
16a	.
=7	=7
8dd	D
16cc#	.
8.b	.
4b	.
8r	A
8a	.
[8dd	.
=8	=8
8dd]	F#m
8ee	.
8cc#	.
16cc#	.
[8.bL	.
16b]J	E
16b]	.
4r	.
*-	*-